public/svg/chevron-down-black.svg

<svg width="11" height="7" viewBox="0 0 11 7" fill="none" xmlns="http://www.w3.org/2000/svg">
<path fill-rule="evenodd" clip-rule="evenodd" d="M6.09427 6.73276C5.93934 6.90387 5.72923 7 5.51015 7C5.29107 7 5.08097 6.90387 4.92603 6.73276L0.252229 1.56929C0.173318 1.48509 0.110377 1.38438 0.0670764 1.27302C0.0237762 1.16166 0.000984475 1.04188 3.11942e-05 0.920688C-0.000922086 0.799493 0.0199824 0.679302 0.0615243 0.567127C0.103066 0.454953 0.164414 0.353041 0.241988 0.26734C0.319562 0.181639 0.411808 0.113864 0.513345 0.0679696C0.614882 0.0220754 0.723675 -0.00101869 0.833377 3.4463e-05C0.943079 0.00108762 1.05149 0.0262672 1.15229 0.0741039C1.25309 0.121941 1.34426 0.191476 1.42047 0.278654L5.51015 4.7968L9.59983 0.278654C9.75566 0.112388 9.96435 0.0203869 10.181 0.0224665C10.3976 0.0245462 10.6048 0.12054 10.758 0.289772C10.9112 0.459005 10.9981 0.687936 11 0.927258C11.0019 1.16658 10.9186 1.39714 10.7681 1.56929L6.09427 6.73276Z" fill="black"/>
</svg>

<svg xmlns="http://www.w3.org/2000/svg" width="11" height="7" fill="none"><path fill="#000" fill-rule="evenodd" d="M6.094 6.733A.79.79 0 0 1 5.51 7a.79.79 0 0 1-.584-.267L.252 1.569a.9.9 0 0 1-.185-.296A1 1 0 0 1 .062.567a.9.9 0 0 1 .18-.3.8.8 0 0 1 .271-.199.76.76 0 0 1 .64.006.8.8 0 0 1 .267.205l4.09 4.518L9.6.279a.79.79 0 0 1 .581-.257.8.8 0 0 1 .577.268c.153.169.24.398.242.637a.97.97 0 0 1-.232.642z" clip-rule="evenodd"/></svg>
